X:1
T:Salvation’s Story, 76.76 D
T:Salvation’s Story, 76.76 D
T:William James Kirkpatrick, 1879
T:Public Domain Courtesy of the Cyber Hymnal™
C:William James Kirkpatrick, 1879
Z:Public Domain
Z:Courtesy of the Cyber Hymnal™
%%score ( 1 2 ) ( 3 4 )
L:1/8
Q:1/4=104
M:6/8
K:G
V:1 treble 
V:2 treble 
V:3 bass 
V:4 bass 
V:1
 [GB]2 [GB] (BA)G | [FA]2 [FA] [Fd]3 | [DG]2 [DG] (GF)[DG] | [FA]2 [GB] [FA]2 z | %4
 [GB]2 [GB] ([Bd][Ac])[GB] | [FA]2 [FA] [Fd]3 | [DF][DF] z [DG][DG] z | [^CE]3 D2 z | %8
 [Dd]2 [Gd] ([Bd][Ac])[GB] | [Gc]2 [Gc] [Ge]3 | [Gd]2 [GB] (dc)[GB] | [FA]3 [Fd]2 z | %12
 [DG]2 [DG] (G[FA])[=FB] | c2 [Gc] [Ge]3 | [Gd][Gd] z [GB][GB] z | [FA]3 G2 z |] %16
V:2
 x3 G2 G | x6 | x3 D2 x | x6 | x6 | x6 | x6 | x3 D2 x | x6 | x6 | x3 A2 x | x6 | x3 G x2 | %13
 (EG) x4 | x6 | x3 G2 x |] %16
V:3
 [G,D]2 [G,D] (DC)[G,B,] | [D,D]2 [D,D] [D,A,]3 | [G,B,]2 [G,B,] ([B,D][A,C])[G,B,] | %3
 [D,D]3 [D,D]2 z | [G,D]2 [G,D] [G,D]2 [G,D] | [D,D]2 [D,D] [D,A,]3 | %6
 [D,A,][D,A,] z [G,,B,][G,,B,] z | [A,,G,]3 [D,F,]2 z | [G,B,]2 [G,B,] [G,D]2 [G,D] | %9
 [C,E]2 [C,E] [C,C]3 | [G,B,]2 [G,D] [F,D]2 [G,D] | [D,D]3 [D,A,]2 z | [G,B,]2 [G,B,] (B,C)[G,D] | %13
 [C,E]2 [C,E] [C,C]3 | [D,B,][D,B,] z [D,D][D,D] z | [D,C]3 [G,,B,]2 z |] %16
V:4
 x3 G,2 x | x6 | x6 | x6 | x6 | x6 | x6 | x6 | x6 | x6 | x6 | x6 | x3 G,2 x | x6 | x6 | x6 |] %16

